!!!!SEGMENT: pl-kk--kk-i-496_anonim--o-salutaris-hostia.krn
!!!cenid: 17xx:1839
!!!COM: Anonim
!!!COM-rismID: pe30004985
!!!CDT:
!!!CNT:
!!!OTL: O salutaris hostia
!!!PDT:
!!!AGN:
!!!SMS-siglum: PL-Kk
!!!SMS-shelfmark: Kk.I.496
!!!SMS-shelfwork: W
!!!SMS-variant:
!!!SMS-altvar:
!!!NIFC-rismSourceID: 1001136785
!!!NIFC-islandoraID: pl-kk:14587
!!!URL-pdf-islandora: https://repozytorium.nifc.pl/islandora/object/pl-kk%3A14587/datastream/PDF/view
!!!URL-scan: https://polish.musicsources.pl/pl/lokalizacje/galeria/rekopisy/6104 @EN{Scan on Polish Music Sources Website} @PL{Skany w portalu Dziedzictwo Muzyki Polskiej w otwartym dostępie}
!!!ONB-nifc:
!!!AIN: 2 empty 1 tenor
!!!key:
**kern	**text	**dynam	**kern	**text	**dynam	**kern	**text	**dynam
*part3	*part3	*part3	*part2	*part2	*part2	*part1	*part1	*part1
*staff3	*staff3	*	*staff2	*staff2	*	*staff1	*staff1	*
*Iempty	*	*	*Itenor	*	*	*Iempty	*	*
*I"Baſso	*	*	*I"Tenore	*	*	*I"Contra Alt	*	*
*I'B.	*	*	*I'T.	*	*	*I'C.A.	*	*
*clefF4	*	*	*clefC4	*	*	*clefC3	*	*
*k[<]	*	*	*k[<]	*	*	*k[<]	*	*
*C:	*	*	*C:	*	*	*C:	*	*
*M3/4	*	*	*M3/4	*	*	*M3/4	*	*
*	*	*	*	*	*	*	*	*below
=1	=1	=1	=1	=1	=1	=1	=1	=1
*2\right	*	*	*	*	*	*2\right	*	*
!	!	!	!	!	!	!LO:TX:t=P:problem=metrum zapisane tylko jako "3"	!	!
!LO:TX:t=P:problem=metrum zapisane tylko jako "3"	!	!	!LO:TX:t=P:problem=metrum zapisane tylko jako "3"	!	!	!	!	!
!LO:TX:rj:a:t=Largo dolce	!	!	!LO:TX:a:t=Largo dolce	!	!	!LO:TX:a:t=Largo dolce	!	!
2.c\	O	.	2.G/	o	.	2.e\	O	.
=2	=2	=2	=2	=2	=2	=2	=2	=2
2G\	Sa-	.	4c\	.	.	2d\	Sa-	.
.	.	.	4.B\	sa-	.	.	.	.
4G\	-lu-	.	.	.	.	8g\L	-lu-	.
.	.	.	8d\	-lu-	.	8f\J	.	.
=3	=3	=3	=3	=3	=3	=3	=3	=3
2A\	-ta-	.	8.d\L	-ta-	.	8.f\L	-ta-	.
.	.	.	16c\Jk	.	.	16e\Jk	.	.
*	*	*	*2\right	*	*	*	*	*
.	.	.	2c\	-ris	.	2e\	-ris	.
4A\	-ris	.	.	.	.	.	.	.
=4	=4	=4	=4	=4	=4	=4	=4	=4
4F\	o-	f	2f\	o	.	2a\	o	.
4A\	-sa-	.	.	.	.	.	.	.
4c\	-lu-	.	8e\	sa-	.	8g\	sa-	.
.	.	.	8c\	-lu-	.	8a\	-lu-	.
=5	=5	=5	=5	=5	=5	=5	=5	=5
2G\	-ta-	.	(4B\	-ta-	.	(4g\	-ta-	.
.	.	.	4d\)	.	.	4f\)	.	.
4A\	-ris	.	4c\	-ris	.	4e\	-ris	.
=6	=6	=6	=6	=6	=6	=6	=6	=6
[>2G\	hos-	.	4c\	.	p	4e\	.	.
.	.	.	(8e\L	hos-	.	(8g\L	hos-	.
.	.	.	8d\	.	.	8f\J	.	.
8G\]	.	.	8c\J)	.	.	8e\)	.	.
8G\	-ti-	.	8B\	-ti-	.	8d\	-ti-	.
=7	=7	=7	=7	=7	=7	=7	=7	=7
2.C/	-a	.	2.c\	-a	.	2.c/	-a	.
=8	=8	=8	=8	=8	=8	=8	=8	=8
4c\	quae	p	2.r	.	.	2.r	.	.
!LO:LB:g=original	!	!	!	!	!	!	!	!
4B\	cae-	.	.	.	.	.	.	.
4A\	-li	.	.	.	.	.	.	.
=9	=9	=9	=9	=9	=9	=9	=9	=9
2G\	pan-	p	4d\	quae	p	4f\	quae	p
.	.	.	4c\	cae-	.	4e\	cae-	.
4F\	-dis	.	4B\	-li	.	4d\	-li	.
!	!	!	!LO:LB:g=original	!	!	!LO:LB:g=original	!	!
=10	=10	=10	=10	=10	=10	=10	=10	=10
2E\	pan-	.	2c\	pan-	.	2g\	pan-	.
4F\	-dis	.	4c\	-dis	.	8a\L	-dis	.
.	.	.	.	.	.	8f\J	.	.
=11	=11	=11	=11	=11	=11	=11	=11	=11
8G\	hos-	.	8c\	hos-	.	8e\	hos-	.
8G\	-ti-	.	8B\	-ti-	.	8d\	-ti-	.
2G;\	-um	.	2B;\	-um	.	2d;\	-um	.
=12||	=12||	=12||	=12||	=12||	=12||	=12||	=12||	=12||
!LO:N:vis=0	!	!	!LO:TX:a:t=Solo.	!	!	!LO:N:vis=0	!	!
1.r	.	.	2d\	bel-	.	1.r	.	.
.	.	.	8e\L	-la	.	.	.	.
.	.	.	8c\J	.	.	.	.	.
=13	=13	=13	=13	=13	=13	=13	=13	=13
.	.	.	2B\	pre-	.	.	.	.
.	.	.	16d\LL	-munt	.	.	.	.
.	.	.	16c\JJ	.	.	.	.	.
.	.	.	16B\LL	hos-	.	.	.	.
.	.	.	16A\JJ	.	.	.	.	.
=14	=14	=14	=14	=14	=14	=14	=14	=14
4r	.	p	8.A/	-ti-	.	2.r	.	.
.	.	.	16G/	-li-	.	.	.	.
4G\	bel-	.	2G/	-a	.	.	.	.
4G\	-la	.	.	.	.	.	.	.
=15	=15	=15	=15	=15	=15	=15	=15	=15
2.G\	pre-	.	2e\	bel-	p	2g\	bel-	p
.	.	.	8d\L	-la	.	(8f#X\L	-la	.
.	.	.	8c\J	.	.	8e\J)	.	.
=16	=16	=16	=16	=16	=16	=16	=16	=16
2.G\	-munt	.	8c\L	pre-	.	(8e\L	pre-	.
.	.	.	8B\J	.	.	8d\J)	.	.
!	!	!	!LO:TX:t=P:problem=wykreślony takt	!	!	!	!	!
.	.	.	2B\	-munt	.	2d\	-munt	.
=17	=17	=17	=17	=17	=17	=17	=17	=17
2.r	.	.	4c\	bel-	.	2.r	.	.
.	.	.	8qqd/	.	.	.	.	.
.	.	.	16c\LL	.	.	.	.	.
.	.	.	16B\	.	.	.	.	.
.	.	.	16c\	.	.	.	.	.
.	.	.	16d\JJ	.	.	.	.	.
!	!	!	!LO:LB:g=original	!	!	!	!	!
.	.	.	8e\	.	.	.	.	.
.	.	.	8e\	-la	.	.	.	.
=18	=18	=18	=18	=18	=18	=18	=18	=18
2D\	pre-	f	4d\	pre-	f	2f#X\	pre-	.
.	.	.	8qqd/	.	.	.	.	.
.	.	.	4c\	.	.	.	.	.
4E\	-munt	.	4B\	-munt	.	4g\	-munt	.
!LO:LB:g=original	!	!	!	!	!	!	!	!
=19	=19	=19	=19	=19	=19	=19	=19	=19
4C/	hos-	.	8c\L	hos-	.	8e\L	hos-	.
.	.	.	8B\J	.	.	8d\J	.	.
4.D/	-ti-	.	4.B\	-ti-	.	4.d\	-ti-	.
8D/	-li-	.	8A\	-li-	.	8d\	-li-	.
=20	=20	=20	=20	=20	=20	=20	=20	=20
4G\	-a	.	4G/	-a	.	4B/	-a	.
4r	.	.	(4B\	bel-	p	4d\	bel-	.
4r	.	.	4d\)	.	.	4fn\	-la	.
!	!	!	!	!	!	!LO:LB:g=original	!	!
=21	=21	=21	=21	=21	=21	=21	=21	=21
4r	.	p	4d\	-la	.	2.e\	pre-	.
8c\L	bel-	.	[<2c\	pre-	.	.	.	.
8B\J	.	.	.	.	.	.	.	.
8A\L	-la	.	.	.	.	.	.	.
8G\J	.	.	.	.	.	.	.	.
=22	=22	=22	=22	=22	=22	=22	=22	=22
8F#X\L	pre-	.	4c\]	.	.	2.d\	-munt	.
8D\	.	.	.	.	.	.	.	.
8G\	.	.	[<2B\	-munt	.	.	.	.
8A\	.	.	.	.	.	.	.	.
8B\	.	.	.	.	.	.	.	.
8G\J	.	.	.	.	.	.	.	.
=23	=23	=23	=23	=23	=23	=23	=23	=23
8E\L	.	.	4B\]	.	.	2c/	bel-	.
8G\	.	.	.	.	.	.	.	.
8F#X\	.	.	4A\	bel-	.	.	.	.
8A\	.	.	.	.	.	.	.	.
8D\	.	.	4A\	-la	.	4c/	-la	.
8F#\J	.	.	.	.	.	.	.	.
=24	=24	=24	=24	=24	=24	=24	=24	=24
4G\	-munt	.	(8G\L	pre-	pp	(8B\L	pre-	.
.	.	.	8A\	.	.	8c\	.	.
4r	.	.	8B\	.	.	8d\	.	.
.	.	.	8c\	.	.	8e\	.	.
4r	.	.	8d\	.	.	8f#X\	.	.
.	.	.	8e\J)	.	.	8g\J)	.	.
!	!	!	!LO:LB:g=original	!	!	!	!	!
=25	=25	=25	=25	=25	=25	=25	=25	=25
.	.	.	8qqd/	.	.	8qqf#X/	.	.
4C/	hos-	.	8c\	-munt	.	8e\	-munt	.
.	.	.	16B\LL	hos-	.	(16d\LL	hos-	.
.	.	.	16A\JJ	.	.	16c\JJ)	.	.
4.D/	-ti-	.	4G/	-ti-	.	4B/	-ti-	.
.	.	.	4F#X/	-li-	.	4A/	-li-	.
8D/	-li	.	.	.	.	.	.	.
.	.	.	16qqG/	.	.	.	.	.
!LO:LB:g=original	!	!	!	!	!	!	!	!
=26	=26	=26	=26	=26	=26	=26	=26	=26
4G\	a	.	4G/	-a	.	4G/	-a	.
!	!	!LO:DY:rj	!	!	!	!	!	!
4B\	da-	f	4B\	da-	f	4B/	da-	f
4d\	-ro-	.	4d\	-ro-	.	4d\	-ro-	.
=27	=27	=27	=27	=27	=27	=27	=27	=27
2E\	-bur	.	2B\	-bur	.	2g\	-bur	.
8C/	fer	.	8c\	fe	.	8e\	fer	.
8C/	au-	.	8c\	au-	.	8a\	au-	.
.	.	.	.	.	.	16qqb/LL	.	.
.	.	.	.	.	.	16qqa/JJ	.	.
=28	=28	=28	=28	=28	=28	=28	=28	=28
[<2D/	-xi-	.	4B\	-xi-	.	4.g\	-xi-	.
.	.	.	4.AT/	.	.	.	.	.
.	.	.	.	.	.	4f#Xt\	.	.
8D/]	.	.	.	.	.	.	.	.
8D/	-li-	.	8G/	-li-	.	8g\	-li-	.
!	!	!	!	!	!	!LO:LB:g=original	!	!
=29	=29	=29	=29	=29	=29	=29	=29	=29
2.GG;/	-um	.	2.G;/	-um	.	2.g;\	-um	.
=30||	=30||	=30||	=30||	=30||	=30||	=30||	=30||	=30||
!	!	!	!	!	!	!	!	!LO:DY:b
2.r	.	.	2.r	.	.	4d\	o	p
.	.	.	.	.	.	4g\	Sa-	.
.	.	.	.	.	.	4g\	-lu-	.
=31	=31	=31	=31	=31	=31	=31	=31	=31
4r	.	.	4r	.	.	8g\L	-ta-	.
.	.	.	.	.	.	8fn\J	.	.
4A\	Sa-	.	4c\	sa-	.	[<2f\	-ris	.
4A\	-lu-	.	4c\	-lu-	.	.	.	.
=32	=32	=32	=32	=32	=32	=32	=32	=32
2G#X\	-ta-	.	2B\	-ta-	.	4f\]	.	.
.	.	.	.	.	.	8e\	sa-	.
.	.	.	.	.	.	8f\	-lu-	.
4G#\	-ris	.	4B\	-ris	.	8e\	-ta-	.
.	.	.	.	.	.	8d\	-ris	.
!	!	!	!LO:LB:g=original	!	!	!	!	!
=33	=33	=33	=33	=33	=33	=33	=33	=33
8.A\	hos-	.	8.B\	hos-	.	8.d\	hos-	.
16A\	-ti-	.	16A\	-ti-	.	16c\	-ti-	.
!LO:LB:g=original	!	!	!	!	!	!	!	!
8A\	-a	.	8A\	-a	.	4c\	-a	.
8c\	quae	.	8e\	quae	.	.	.	.
8B\	cae-	.	8d\	cae-	.	4r	.	.
8A\	-li	.	8c\	-li	.	.	.	.
=34	=34	=34	=34	=34	=34	=34	=34	=34
!	!	!LO:HP:a	!	!	!LO:HP:a	!	!	!
2G#X\	pan-	<	4.B\	pan-	<	2.f\	quae	<
.	.	.	8c\	.	.	.	.	.
.	.	.	8qqe/	.	.	.	.	.
4G#\	-dis	.	8d\	.	.	.	.	.
.	.	.	16c\LL	-dis	.	.	.	.
.	.	.	16B\JJ	.	.	.	.	.
=35	=35	=35	=35	=35	=35	=35	=35	=35
4A\	pan-	.	4.c\	pan-	.	4.e\	cae-	.
8G\L	.	.	.	.	.	.	.	.
8F\J	.	.	8d\	.	.	8f\	-li	.
.	.	.	8qqf/	.	.	8qqa/	.	.
8E\L	-dis	.	8e\	.	.	8g\	pan-	.
8F\J	.	.	16d\LL	-dis	.	16f\LL	-dis	.
.	.	.	16c\JJ	.	.	16e\JJ	.	.
!	!	!	!	!	!	!LO:LB:g=original	!	!
=36	=36	=36	=36	=36	=36	=36	=36	=36
4.G\	hos-	.	8.c\	hos-	.	8.e\	hos-	.
.	.	.	16B\	-ti-	.	16d\	-ti-	.
.	.	.	2B\	-um	.	2d\	-um	.
8F\L	.	.	.	.	.	.	.	.
8E\J	.	.	.	.	.	.	.	.
8D\	-ti-	.	.	.	.	.	.	.
=37	=37	=37	=37	=37	=37	=37	=37	=37
!	!	!	!LO:N:vis=0	!	!	!	!	!
4C/	-um	.	1.r	.	.	4.c\	bel-	pp
4r	.	.	.	.	.	.	.	.
.	.	.	.	.	.	8d\L	.	.
4r	.	.	.	.	.	8c\	.	.
.	.	.	.	.	.	8B\J	.	.
=38	=38	=38	=38	=38	=38	=38	=38	=38
!LO:N:vis=0	!	!	!	!	!	!	!	!
1.r	.	.	.	.	.	8A/L	.	.
.	.	.	.	.	.	8G/	.	.
.	.	.	.	.	.	8A/	.	.
.	.	.	.	.	.	8B/J	.	.
.	.	.	.	.	.	8c\L	-la	.
.	.	.	.	.	.	8d\J	.	.
=39	=39	=39	=39	=39	=39	=39	=39	=39
.	.	.	4.c\	bel-	p	4.e\	bel-	.
.	.	.	8d\L	.	.	8f\L	.	.
.	.	.	8c\	.	.	8e\	.	.
.	.	.	8B\J	.	.	8d\J	.	.
!	!	!	!LO:LB:g=original	!	!	!	!	!
=40	=40	=40	=40	=40	=40	=40	=40	=40
2.r	.	.	8A\L	.	.	8c\L	.	.
.	.	.	8G\	.	.	8B\	.	.
.	.	.	8A\	.	.	8c\	.	.
.	.	.	8B\J	.	.	8d\J	.	.
.	.	.	8c\L	-la	.	8e\L	-la	.
.	.	.	8d\J	.	.	8f\J	.	.
=41	=41	=41	=41	=41	=41	=41	=41	=41
4.c\	bel-	.	4.e\	bel-	.	[<<2.g\	pre-	.
8e\L	.	.	8f\L	.	.	.	.	.
8c\	.	.	8e\	.	.	.	.	.
8B\J	.	.	8d\J	.	.	.	.	.
!LO:LB:g=original	!	!	!	!	!	!	!	!
=42	=42	=42	=42	=42	=42	=42	=42	=42
8A\L	.	.	8c\L	.	<	2.g\_<	.	.
8G\	.	.	8B\	.	.	.	.	.
8F\	.	.	8A\	.	.	.	.	.
8E\J	.	.	8G\J	.	.	.	.	.
8D/L	-la	.	8F/L	-la	.	.	.	.
8C/J	.	.	8E/J	.	.	.	.	.
=43	=43	=43	=43	=43	=43	=43	=43	=43
!	!	!LO:DY:rj	!	!	!	!	!	!
2.BB/	pre-	f	4D/	pre-	f	(<2g\]	.	.
.	.	.	2d\	.	.	.	.	.
!	!	!	!	!	!	!LO:LB:g=original	!	!
.	.	.	.	.	.	8qqg/)	.	f
.	.	.	.	.	.	12f\L	.	.
.	.	.	.	.	.	12e\	.	.
.	.	.	.	.	.	12f\J	.	.
=44	=44	=44	=44	=44	=44	=44	=44	=44
4C/	-munt	.	4G/	-munt	.	4e\	-munt	.
.	.	.	16qqd/	.	.	.	.	.
4r	.	.	16c\LL	bel-	.	4r	.	.
.	.	.	16B\	.	.	.	.	.
.	.	.	16c\	.	.	.	.	.
.	.	.	16d\JJ	.	.	.	.	.
.	.	.	16qqf/	.	.	.	.	.
4r	.	.	16e\LL	.	.	4r	.	.
.	.	.	16d\	.	.	.	.	.
.	.	.	16e\	.	.	.	.	.
.	.	.	16f\JJ	.	.	.	.	.
=45	=45	=45	=45	=45	=45	=45	=45	=45
2.r	.	.	4g\	.	p	2.r	.	.
.	.	.	8f\L	.	.	.	.	.
.	.	.	8e\J	.	.	.	.	.
.	.	.	8d\L	-la	.	.	.	.
.	.	.	8c\J	.	.	.	.	.
=46	=46	=46	=46	=46	=46	=46	=46	=46
!	!	!LO:DY:rj	!	!	!	!	!	!
2.C/	pre-	f	2.B-X\	pre-	.	2.e\	pre-	f
!	!	!	!LO:PB:g=original	!	!	!	!	!
=47	=47	=47	=47	=47	=47	=47	=47	=47
4F\	-munt	.	4A/	-munt	.	4f\	-munt	.
!	!	!LO:DY:rj	!	!	!	!	!	!
8A\L	bel-	p	4r	.	.	4r	.	.
8G\J	.	.	.	.	.	.	.	.
8F\L	-la	.	4r	.	.	4r	.	.
8E\J	.	.	.	.	.	.	.	.
=48	=48	=48	=48	=48	=48	=48	=48	=48
!	!	!LO:DY:rj	!	!	!	!	!	!
4D\	pre-	f	4c\	pre-	f	4f#X\	pre-	.
4D\	-munt	.	4c\	-munt	.	4f#\	-munt	.
4D\	hos-	.	4c\	hos-	.	4a\	hos-	.
!LO:LB:g=original	!	!	!	!	!	!	!	!
=49	=49	=49	=49	=49	=49	=49	=49	=49
[>2G\	-ti-	.	2B\	-ti-	.	2d\	-ti-	.
.	.	.	8qqd/	.	.	8qqf/	.	.
8G\]	.	.	8c\	.	.	8e\	.	.
8G\	-li-	.	8B\	-li-	.	8d\	-li-	.
=50	=50	=50	=50	=50	=50	=50	=50	=50
2.G;\	-a	.	2.B;\	-a	.	2.d;\	-a	.
.	.	.	.	.	.	.	.	p
!	!	!	!	!	!	!LO:PB:g=original	!	!
=51||	=51||	=51||	=51||	=51||	=51||	=51||	=51||	=51||
2.r	.	.	2.r	.	f	(4a\	da-	.
.	.	.	.	.	.	8qqg/	.	.
.	.	.	.	.	.	4f\)	.	.
.	.	.	.	.	.	8qqe/	.	.
.	.	.	.	.	.	4d\	-ro-	.
=52	=52	=52	=52	=52	=52	=52	=52	=52
!	!	!LO:DY:rj	!	!	!	!	!	!
4G\	fe	f	2.G/	fer	.	(4c/	-bur	f
8qqG\	.	.	.	.	.	.	.	.
4F\	.	.	.	.	.	4B/)	.	.
4D\	au-	.	.	.	.	4c/	fer	.
=53	=53	=53	=53	=53	=53	=53	=53	=53
!	!	!LO:DY:rj	!	!	!	!	!	!
4F\	-xi-	p	4f\	au-	p	4a\	au-	.
.	.	.	.	.	.	(16qqa/LL	.	.
.	.	.	.	.	.	16qqb/JJ)	.	.
4.G\	.	.	4.e\	-xi-	.	4.g\	-xi-	.
8G\	-li-	.	8d\	-li-	.	8g\	-li-	.
=54	=54	=54	=54	=54	=54	=54	=54	=54
.	.	.	8qqd/	.	.	8qqf/	.	.
2.A\	-um	.	2c\	-um	.	2.e\	-um	.
.	.	.	4r	.	.	.	.	.
=55	=55	=55	=55	=55	=55	=55	=55	=55
!	!	!	!LO:TX:a:t=3.	!	!	!LO:N:vis=0	!	!
!	!	!LO:DY:rj	!LO:N:vis=0	!	!	!	!	!
4F\	da-	f	1.r	.	.	1.r	.	.
4A\	-ro-	.	.	.	.	.	.	.
4c\	-bur	.	.	.	.	.	.	.
=56	=56	=56	=56	=56	=56	=56	=56	=56
[>2.f\ 2.F\	fer	.	.	.	.	.	.	.
=57	=57	=57	=57	=57	=57	=57	=57	=57
4.f\] 4.F\	.	.	2.r	.	.	2.r	.	.
!LO:LB:g=original	!	!	!	!	!	!	!	!
8c\	au-	.	.	.	.	.	.	.
8qqB/	.	.	.	.	.	.	.	.
8A\	-xi-	.	.	.	.	.	.	.
16G\LL	-li-	.	.	.	.	.	.	.
16F\JJ	.	.	.	.	.	.	.	.
!	!	!	!LO:LB:g=original	!	!	!	!	!
=58	=58	=58	=58	=58	=58	=58	=58	=58
[<2.C/	-um	.	(<2.c\	da-	.	(<2.e\	da-	pp
.	.	.	8qqd/)	.	.	8qqf/)	.	.
=59	=59	=59	=59	=59	=59	=59	=59	=59
!	!	!	!	!	!	!	!	!LO:HP:a
2.C/_	.	.	(<2.d\	-ro-	.	(<2.f\	-ro-	<
.	.	.	8qqe/)	.	.	8qqg/)	.	.
=60	=60	=60	=60	=60	=60	=60	=60	=60
4.C/]	.	.	4.e\	-bur	.	4.g\	-bur	.
8c\	da-	f	8c\	da-	.	8e\	da-	f
!	!	!	!	!	!	!LO:LB:g=original	!	!
8c\	-ro-	.	8d\	-ro-	.	8f\	-ro-	.
8c\	-bur	.	8e\	-bur	.	8g\	-bur	.
=61	=61	=61	=61	=61	=61	=61	=61	=61
.	.	.	8qqg/	.	.	8qqb/	.	.
2F;\	fer	.	2f;<\	fer	.	2a;\	fer	.
4F\	au-	p	8d\L	au-	.	8f\L	au-	.
.	.	.	16qqe/LL	.	.	(>16qqg/LL	.	.
.	.	.	16qqd/	.	.	16qqf/	.	.
.	.	.	(>16qqc/	.	.	16qqe/	.	.
.	.	.	16qqd/JJ	.	.	16qqf/JJ	.	.
.	.	.	16f\L	.	.	16a\L	.	.
.	.	.	16d\JJ)	.	.	16g\JJ)	.	.
=62	=62	=62	=62	=62	=62	=62	=62	=62
[<2.G\	-xi-	.	2.c\	-xi-	.	2.e\	-xi-	.
=63	=63	=63	=63	=63	=63	=63	=63	=63
2G\_	.	.	2Bt\	.	.	2dT\	.	.
8G\]	.	.	8B\	.	.	8d\	.	.
8G\	-li-	.	8c\	-li-	.	8c\	-li-	.
=64	=64	=64	=64	=64	=64	=64	=64	=64
2.C;/	-um.	.	2.c;\	-um.	.	2.c/	-um	.
==	==	==	==	==	==	==	==	==
*-	*-	*-	*-	*-	*-	*-	*-	*-
!!!system-decoration: [<(s1,s2,s3)]
!!!RDF**kern: > = above
!!!RDF**kern: < = below
!!!RDF**dynam: < = cres
!!!RDF**dynam: p = p.
!!!EED: Leszek Kubiak
!!!EEV: 2021-01-02
!!!ENC: Andrzej Gręziak
!!!END: 2020-12-30
